qml/icons/navigation/end-of-road-right-black.svg

<svg id="WORKING_ICONS" data-name="WORKING ICONS" xmlns="http://www.w3.org/2000/svg" width="20" height="20" viewBox="0 0 20 20">
  <title>direction</title>
  <path fill="#000000" d="M12.8,6.2V7.8H2.50119A0.30152,0.30152,0,0,1,2.2,7.49882V6.50118A0.30152,0.30152,0,0,1,2.50119,6.2H12.8M13,6H2.50119A0.50119,0.50119,0,0,0,2,6.50118V7.49882A0.50119,0.50119,0,0,0,2.50119,8H13V6h0ZM10,7.98169h1.98755a0.3576,0.3576,0,0,1,.37738.54248L11.02118,11.476a0.38659,0.38659,0,0,0,.62354.40942L17.9917,7l-6.347-4.922a0.38659,0.38659,0,0,0-.62354.40942l1.34375,2.95184a0.35757,0.35757,0,0,1-.37738.54242H10V5.97986l-0.011.00183A6.06019,6.06019,0,0,0,4,12.05493V16H4.00311l-0.002,1.50317A0.49614,0.49614,0,0,0,4.49731,18H5.50378A0.49622,0.49622,0,0,0,6,17.50378V12.05493A4.05782,4.05782,0,0,1,9.98877,7.98169H10Z"/>
</svg>

<svg data-name="WORKING ICONS" xmlns="http://www.w3.org/2000/svg" width="20" height="20"><path d="M12.8 6.2v1.6H2.501a.302.302 0 0 1-.301-.301V6.5a.302.302 0 0 1 .301-.301H12.8M13 6H2.501A.501.501 0 0 0 2 6.501V7.5a.501.501 0 0 0 .501.5H13V6Zm-3 1.982h1.988a.358.358 0 0 1 .377.542l-1.344 2.952a.387.387 0 0 0 .624.41L17.992 7l-6.347-4.922a.387.387 0 0 0-.624.41l1.344 2.951a.358.358 0 0 1-.377.543H10V5.98l-.011.002A6.06 6.06 0 0 0 4 12.055V16h.003l-.002 1.503a.496.496 0 0 0 .496.497h1.007A.496.496 0 0 0 6 17.504v-5.45a4.058 4.058 0 0 1 3.989-4.072H10Z"/></svg>
